source/img/favicon/152.svg

<svg width="152" height="152" viewBox="0 0 152 152" fill="none" xmlns="http://www.w3.org/2000/svg">
<rect width="152" height="152" fill="#EEEEEE"/>
<path d="M36.3022 95.8371C33.9077 92.3646 32.7628 88.2106 33.0481 84.0307V66.9694C32.746 62.7587 33.8736 58.5682 36.2557 55.0493C38.4097 52.3347 42.0899 50.985 47.2966 51.0001C52.5032 51.0153 56.0285 52.2058 57.8725 54.5716C60.121 57.5034 61.2181 61.1283 60.964 64.7856V68.7893H51.341V64.4444C51.328 63.3011 51.227 62.1605 51.0388 61.0321C50.9225 60.2153 50.5393 59.4572 49.9464 58.871C49.5804 58.5639 49.1555 58.3312 48.6965 58.1867C48.2375 58.0422 47.7537 57.9887 47.2733 58.0294C46.5835 57.9286 45.8786 58.0383 45.2548 58.3436C44.6309 58.6489 44.1183 59.1349 43.7867 59.7355C43.1756 61.333 42.9066 63.0365 42.9965 64.7401V86.3965C42.8904 88.1114 43.2011 89.8264 43.903 91.4011C44.2383 91.9692 44.736 92.429 45.3347 92.7241C45.9335 93.0191 46.6073 93.1365 47.2733 93.0618C47.9278 93.1523 48.5947 93.0384 49.1791 92.7361C49.7634 92.4338 50.2353 91.9586 50.5275 91.3784C51.0897 89.7778 51.3343 88.0869 51.248 86.3965V81.8468H60.871V85.7823C61.1543 89.4935 60.1467 93.1894 58.012 96.2693C55.9665 98.7716 52.4335 100 47.4128 100C42.3921 100 38.4639 98.6351 36.3022 95.8371Z" fill="#111111"/>
<path d="M73.4675 52H84.603L94 99H84.7439L83.076 88.6152H75.2764L73.397 98.9328H64L73.4675 52ZM82.0423 82.7067L79.0822 63.8171L76.1457 82.7067H82.0423Z" fill="#111111"/>
<path d="M100.556 59.0825H93V52H118V59.0825H110.537V99H100.533L100.556 59.0825Z" fill="#111111"/>
</svg>

<svg width="152" height="152" fill="none" xmlns="http://www.w3.org/2000/svg"><path fill="#EEE" d="M0 0h152v152H0z"/><path d="M36.3 95.84a18.56 18.56 0 01-3.25-11.8V66.96c-.3-4.21.82-8.4 3.2-11.92 2.16-2.72 5.84-4.06 11.05-4.05 5.2.02 8.73 1.2 10.57 3.57a15.06 15.06 0 013.1 10.22v4h-9.63v-4.35a22.28 22.28 0 00-.3-3.4 3.8 3.8 0 00-1.1-2.17 3.65 3.65 0 00-2.67-.84 3.46 3.46 0 00-3.48 1.7 12.2 12.2 0 00-.8 5.01V86.4c-.1 1.71.21 3.43.91 5a3.41 3.41 0 003.37 1.66 3.2 3.2 0 003.26-1.68c.56-1.6.8-3.3.72-4.98v-4.55h9.62v3.93c.28 3.71-.72 7.4-2.86 10.49-2.04 2.5-5.58 3.73-10.6 3.73s-8.95-1.36-11.1-4.16zM73.47 52H84.6L94 99h-9.26l-1.66-10.38h-7.8L73.4 98.93H64L73.47 52zm8.57 30.7l-2.96-18.88-2.93 18.89h5.9zM100.56 59.08H93V52h25v7.08h-7.46V99h-10l.02-39.92z" fill="#111"/></svg>
